public/static/icons/navbar/ic_chat.svg

<svg height="24" viewBox="0 0 24 24" width="24" xmlns="http://www.w3.org/2000/svg"><g transform="translate(.5 2.5)"><path d="m8.3418125.28845833c-4.72554167 0-8.3418125 3.20658334-8.3418125 6.70210417 0 3.4955208 3.12225 5.5209583 3.12225 5.5209583l-.5074375 1.923375c-.06708333.2534792.20460417.462875.4326875.3335l2.28083333-1.2923125c1.00864584.3210417 3.14908334.4235834 3.35752084.4331667-.1495-.5184583-.22329167-1.02925-.22329167-1.5060208 0-2.69770837 2.348875-6.49750003 7.5703542-6.49750003.1188333 0 .2376666.002875.3565.00766666-.6947917-3.32541666-4.1476667-5.6249375-8.0476042-5.6249375z"/><path d="m23 11.9810833c0-3.06187497-3.5923125-5.3038958-6.9675625-5.3038958-4.7734583 0-6.79889583 3.4476042-6.79889583 5.7260417 0 2.2832291 2.02495833 5.7260416 6.79889583 5.7260416 1.0560833 0 1.9851875-.1514166 2.7930625-.41975l1.7954375 1.1394584c.1418333.0900833.3210417-.0368959.2831875-.2007709l-.4072917-1.768125c1.69625-1.181625 2.5031667-3.0441458 2.5031667-4.899z" opacity=".48"/></g></svg>

<svg xmlns="http://www.w3.org/2000/svg" width="24" height="24" viewBox="0 0 24 24">
  <g transform="translate(.5 2.5)">
    <path d="M8.3418125,0.288458333 C3.61627083,0.288458333 0,3.49504167 0,6.9905625 C0,10.4860833 3.12225,12.5115208 3.12225,12.5115208 L2.6148125,14.4348958 C2.54772917,14.688375 2.81941667,14.8977708 3.0475,14.7683958 L5.32833333,13.4760833 C6.33697917,13.797125 8.47741667,13.8996667 8.68585417,13.90925 C8.53635417,13.3907917 8.4625625,12.88 8.4625625,12.4032292 C8.4625625,9.70552083 10.8114375,5.90572917 16.0329167,5.90572917 C16.15175,5.90572917 16.2705833,5.90860417 16.3894167,5.91339583 C15.694625,2.58797917 12.24175,0.288458333 8.3418125,0.288458333 Z"/>
    <path d="M23,11.9810833 C23,8.91920833 19.4076875,6.6771875 16.0324375,6.6771875 C11.2589792,6.6771875 9.23354167,10.1247917 9.23354167,12.4032292 C9.23354167,14.6864583 11.2585,18.1292708 16.0324375,18.1292708 C17.0885208,18.1292708 18.017625,17.9778542 18.8255,17.7095208 L20.6209375,18.8489792 C20.7627708,18.9390625 20.9419792,18.8120833 20.904125,18.6482083 L20.4968333,16.8800833 C22.1930833,15.6984583 23,13.8359375 23,11.9810833 Z" opacity=".48"/>
  </g>
</svg>
